X:1
T:Spirit of the dance
M:6/8
L:1/8
R:Jig
K:D
d2A B2A|d2A B2A|def gfg|efd cBA|
d2A B2A|d2A B2A|def gab|gec d3:|
|:Ace g2a|f2 g ecA|Adf a2b|g2a fed|
Ace g2a|f2g e3|gab afd|f2e d3:|
